Newaita-dark/actions/16/go-bottom.svg

<svg height="16" viewBox="0 0 16 16" width="16" xmlns="http://www.w3.org/2000/svg"><g fill="#e0e0e0"><path d="m8.601562 3.433594v5.953125c0 .363281-.296874.660156-.664062.660156-.363281 0-.660156-.296875-.660156-.660156v-5.953125c0-.367188.296875-.664063.660156-.664063.367188 0 .664062.296875.664062.664063zm0 0"/><path d="m3.726562 4.242188 4.679688 4.675781c.257812.257812.257812.679687 0 .9375-.257812.257812-.679688.257812-.9375 0l-4.675781-4.679688c-.257813-.257812-.257813-.675781 0-.933593.257812-.257813.675781-.257813.933593 0zm0 0"/><path d="m13.085938 5.175781-4.679688 4.679688c-.257812.257812-.675781.257812-.933594 0-.261718-.257813-.261718-.679688 0-.9375l4.675782-4.675781c.257812-.257813.675781-.257813.9375 0 .257812.257812.257812.675781 0 .933593zm0 0"/><path d="m9.261719 12.03125c0 .730469-.59375 1.324219-1.324219 1.324219s-1.324219-.59375-1.324219-1.324219.59375-1.320312 1.324219-1.320312 1.324219.589843 1.324219 1.320312zm0 0"/></g></svg>

<svg xmlns="http://www.w3.org/2000/svg" xmlns:xlink="http://www.w3.org/1999/xlink" width="16px" height="16px" viewBox="0 0 16 16" version="1.1">
<g id="surface1">
     <defs>
  <style id="current-color-scheme" type="text/css">
   .ColorScheme-Text { color:#eeeeee; } .ColorScheme-Highlight { color:#424242; }
  </style>
 </defs>
<path style="fill:currentColor" class="ColorScheme-Text" d="M 8.601562 3.433594 L 8.601562 9.386719 C 8.601562 9.75 8.304688 10.046875 7.9375 10.046875 C 7.574219 10.046875 7.277344 9.75 7.277344 9.386719 L 7.277344 3.433594 C 7.277344 3.066406 7.574219 2.769531 7.9375 2.769531 C 8.304688 2.769531 8.601562 3.066406 8.601562 3.433594 Z M 8.601562 3.433594 "/>
     <defs>
  <style id="current-color-scheme" type="text/css">
   .ColorScheme-Text { color:#eeeeee; } .ColorScheme-Highlight { color:#424242; }
  </style>
 </defs>
<path style="fill:currentColor" class="ColorScheme-Text" d="M 3.726562 4.242188 L 8.40625 8.917969 C 8.664062 9.175781 8.664062 9.597656 8.40625 9.855469 C 8.148438 10.113281 7.726562 10.113281 7.46875 9.855469 L 2.792969 5.175781 C 2.535156 4.917969 2.535156 4.5 2.792969 4.242188 C 3.050781 3.984375 3.46875 3.984375 3.726562 4.242188 Z M 3.726562 4.242188 "/>
     <defs>
  <style id="current-color-scheme" type="text/css">
   .ColorScheme-Text { color:#eeeeee; } .ColorScheme-Highlight { color:#424242; }
  </style>
 </defs>
<path style="fill:currentColor" class="ColorScheme-Text" d="M 13.085938 5.175781 L 8.40625 9.855469 C 8.148438 10.113281 7.730469 10.113281 7.472656 9.855469 C 7.210938 9.597656 7.210938 9.175781 7.472656 8.917969 L 12.148438 4.242188 C 12.40625 3.984375 12.824219 3.984375 13.085938 4.242188 C 13.34375 4.5 13.34375 4.917969 13.085938 5.175781 Z M 13.085938 5.175781 "/>
     <defs>
  <style id="current-color-scheme" type="text/css">
   .ColorScheme-Text { color:#eeeeee; } .ColorScheme-Highlight { color:#424242; }
  </style>
 </defs>
<path style="fill:currentColor" class="ColorScheme-Text" d="M 9.261719 12.03125 C 9.261719 12.761719 8.667969 13.355469 7.9375 13.355469 C 7.207031 13.355469 6.613281 12.761719 6.613281 12.03125 C 6.613281 11.300781 7.207031 10.710938 7.9375 10.710938 C 8.667969 10.710938 9.261719 11.300781 9.261719 12.03125 Z M 9.261719 12.03125 "/>
</g>
</svg>
